X:1
T:Behold now give heed
T:Thomas Ravenscroft
T:Source: The Whole Booke of Psalmes---London---T.Est-1621. Editor : André Vierendeels (23/05/14).
T:Psalm before evening prayer
T:1590-1633
T:Behold now give heed
C:Thomas Ravenscroft
%%score [ 1 2 3 4 ]
L:1/8
Q:1/4=80
M:4/4
K:F
V:1 treble nm="Soprano" snm="S"
V:2 treble nm="Alto" snm="A"
V:3 treble-8 nm="Tenor" snm="T"
V:4 bass nm="Bass" snm="B"
V:1
 A4 A2 G2 | G2 c4 AB | c4 c4 | z2 F2 A>B c2 | c2 A2 d4 | c4 c4 | A4 c2 F2 | E2 F4 B2 | A2 G2 A4 | %9
w: Be- hold now|give heede such as|_ be|the Lord's _ ser-|vants faith- full|and true:|come praise the|Lord eve- ry|de- * gree|
w: O ye that|stand in the Lord's|_ house,|e- ven _ in|our own- God|man- sion:|praise ye the|Lord so bou-|te- * ous,|
w: Lift up your|hands in his ho-|ly place,|yea, and _ that|in the time|of night:|praise ye the|Lord which giveth|al _ grace|
w: Then shall the|Lord out of Si-|* on,|which made _ heav'n|and earth by|his power:|give to you|and your na-|ti- * on,|
 z2 A2 FG A2 | Bc d4 c2- | cB G2 !fermata!A4 |] %12
w: with such songs as|to _ _ him|_ _ are due.|
w: which wor- th our|sal _ va- *|* * ti- on.|
w: for he is a|Lord _ of great|_ _ _ might.|
w: his bles- sing, mer-|cy _ and fa-|* * * vor.|
V:2
 C4 C2 C2 | D2 E2 A,2 F2- | FE/D/ E2 F4 | C4 C2 F2 | E2 D4 F2- | F2 F2 E4 | C4 C2 C2 | %7
w: Be- hold now|give heed such as|_ _ _ _ be|the Lord's ser-|vants faith- ful|_ and true:|come praise the|
w: O ye that|stand in the Lord's|_ _ _ _ house,|e- ven in|our own- God|_ man- sion:|praise ye the|
w: Lift up your|hands in his ho-|* * * ly place,|yea, and that|in the time|_ of night:|praise ye the|
w: Then shall the|Lord out of Si-|* * * * on,|which made heav'n|and earth by|_ this power:|give to you|
 C2 A,2 B,>C D2 | C4 C4 | A,4 C2 D2- | D2 D2 F2 F2- | FE/D/ E2 !fermata!F4 |] %12
w: Lord ev'- * * ry|de- gree|with such songs|_ as to him|_ _ _ are due.|
w: Lord so bou- * *|te- ous,|which wor- keth|_ our sal- va-|* * * ti- on.|
w: Lord which giveth _ _|al grace|for he is|_ a Lord of|_ _ _ great might.|
w: and your na- * *|ti- on,|his bles- sing,|_ mer- cy and|_ _ _ fa- vor.|
V:3
 F4 F2 E2 | D2 C2 F4 | G4 A4 | A4 A2 A2 | G2 F2 B4 | A4 G4 | F4 G2 A2 | G2 F2 D4 | E4 F4 | %9
w: Be- hold now|give heed such|as be|the Lord's ser-|vants faith- ful|and true:|come praise the|Lord ev' ry|de- gree|
w: O ye that|stand in _|Lord's house,|e- ven in|our own- God|man- sion:|praise ye the|Lord so bou-|te- ous,|
w: Lift up your|hands in his|holy place,|yea, and that|in the time|of night:|praise ye the|Lord wich giveth|al grace|
w: Then shall the|Lord out of|Si- on,|which made heav'n|and earth by|his power:|give to you|and your na-|ti- on,|
 c4 A2 F2 | G2 B2 A4 | G4 !fermata!F4 |] %12
w: with such songs|as to him|are due.|
w: which wor- keth|our sal- va-|ti- on.|
w: for he is|a Lord of|great might.|
w: his bles- sing,|mer- cy and|fa- vor.|
V:4
 F,,4 A,,2 C,2 | B,,2 A,,2 D,4 | C,4 F,,4 | F,4 F,2 F,2 | C,2 D,2 B,,>C, D,E, | F,2 F,,2 C,4 | %6
w: Be- hold now|give heed such|as be|the Lord's ser-|vants faith- ful _ _ _|_ and true:|
w: O ye that|stand in _|Lord's house,|e- ven in|our own- God _ _ _|_ man- sion:|
w: Lift up yout|hands in his|holy place,|yea, and that|in the time _ _ _|_ of night:|
w: Then shall the|Lord out of|Si- on,|* made heav'n|and earth by _ _ _|_ his power:|
 z2 F,2 E,2 F,2 | C,2 D,2 B,,4 | C,4 F,,4 | F,,2 F,3 E, D,C, | B,,>A,, G,,2 F,,>G,, A,,B,, | %11
w: come praise the|Lord ev' ry|de- gree|with sich _ songs _|as _ to him _ _ _|
w: prause ye the|Lord so bou-|te- ous,|which wor- keth our _|sal- * * va- * * *|
w: praise ye the|Lord which giveth|al grace|for he is Lord _|_ _ _ of _ _ _|
w: give to you|and your na-|ti- on,|his bles- sing, mer- *|cy _ _ and _ _ _|
 C,4 !fermata!F,,4 |] %12
w: are due.|
w: ti- on.|
w: great might|
w: fa- vor.|

